uploads/exercises/shoulders.svg

<svg width="35" height="34" viewBox="0 0 35 34" fill="none" xmlns="http://www.w3.org/2000/svg">
<path d="M34.3966 3.62069H33.1897V0.603448C33.1897 0.269892 32.9198 0 32.5862 0H30.1724C29.8389 0 29.569 0.269892 29.569 0.603448V3.62069H28.9655V3.01724C28.9655 2.68369 28.6956 2.41379 28.3621 2.41379H25.3448C25.0113 2.41379 24.7414 2.68369 24.7414 3.01724V3.62069H20.5172V3.01724V2.00541C20.5172 0.899892 19.6173 0 18.5118 0H13.8793C13.5458 0 13.2759 0.269892 13.2759 0.603448C13.2759 1.58647 13.7555 2.45287 14.4855 3.00397C14.4853 3.00864 14.4828 3.01256 14.4828 3.01724V3.62069H10.2586V3.01724C10.2586 2.68369 9.98873 2.41379 9.65517 2.41379H6.63793C6.30437 2.41379 6.03448 2.68369 6.03448 3.01724V3.62069H5.43103V0.603448C5.43103 0.269892 5.16114 0 4.82759 0H2.41379C2.08024 0 1.81034 0.269892 1.81034 0.603448V3.62069H0.603448C0.269892 3.62069 0 3.89058 0 4.22414V6.03448C0 6.36804 0.269892 6.63793 0.603448 6.63793H1.81034V9.65517C1.81034 9.98873 2.08024 10.2586 2.41379 10.2586H4.82759C5.16114 10.2586 5.43103 9.98873 5.43103 9.65517V6.63793H6.56295L6.04444 10.7872C6.04142 10.812 6.03976 10.8373 6.03976 10.8621C6.03976 11.383 6.26485 11.8798 6.65679 12.2239C6.75756 12.3129 6.8855 12.3654 7.01916 12.373L11.606 12.6456L13.2593 18.7086L11.4808 26.4161C11.4396 26.5953 11.482 26.7833 11.5969 26.9271C11.7113 27.0714 11.8851 27.1552 12.069 27.1552V33.1897C12.069 33.5232 12.3389 33.7931 12.6724 33.7931C13.006 33.7931 13.2759 33.5232 13.2759 33.1897V27.1552H15.581L15.0945 30.0735C15.0892 30.1059 15.0862 30.1394 15.0862 30.1724V33.1897C15.0862 33.5232 15.3561 33.7931 15.6897 33.7931C16.0232 33.7931 16.2931 33.5232 16.2931 33.1897V30.2225L16.8069 27.1398C17.0412 27.103 17.2386 26.9387 17.2997 26.7036L17.5 25.9329L17.7003 26.7036C17.7613 26.9387 17.9588 27.1028 18.1929 27.1398L18.7069 30.2225V33.1897C18.7069 33.5232 18.9768 33.7931 19.3103 33.7931C19.6439 33.7931 19.9138 33.5232 19.9138 33.1897V30.1724C19.9138 30.1394 19.9108 30.1059 19.9055 30.0735L19.419 27.1552H21.7241V33.1897C21.7241 33.5232 21.994 33.7931 22.3276 33.7931C22.6611 33.7931 22.931 33.5232 22.931 33.1897V27.1552C23.1149 27.1552 23.2887 27.0714 23.4031 26.9271C23.518 26.7833 23.5604 26.5953 23.5192 26.4161L21.7431 18.7191L23.3995 12.6456L27.9857 12.3728C28.1195 12.3651 28.2467 12.3128 28.3474 12.2244C28.7404 11.8804 28.9655 11.3836 28.9655 10.8621C28.9655 10.8373 28.9637 10.812 28.9608 10.7872L28.4419 6.63793H29.569V9.65517C29.569 9.98873 29.8389 10.2586 30.1724 10.2586H32.5862C32.9198 10.2586 33.1897 9.98873 33.1897 9.65517V6.63793H34.3966C34.7301 6.63793 35 6.36804 35 6.03448V4.22414C35 3.89058 34.7301 3.62069 34.3966 3.62069V3.62069ZM20.5172 6.63793H25.3448V8.3392L22.4266 7.85297C22.3941 7.84785 22.3606 7.84483 22.3276 7.84483H20.5172V6.63793ZM25.9483 3.62069H27.7586V4.22414H25.9483V3.62069ZM18.5118 1.2069C18.952 1.2069 19.3103 1.56519 19.3103 2.00541V2.41379H16.2931C15.5064 2.41379 14.8352 1.90931 14.5859 1.2069H18.5118ZM19.3103 3.62069V7.84483H17.6137C16.553 7.84483 15.6897 6.98144 15.6897 5.92073V3.62069H19.3103ZM9.66045 6.63793H14.5734C14.6795 7.08705 14.8856 7.49332 15.1621 7.84483H12.6775C12.6445 7.84483 12.611 7.84785 12.5786 7.85313L9.6603 8.33935V6.63793H9.66045ZM7.24138 3.62069H9.05172V4.22414H7.24138V3.62069ZM1.2069 5.43103V4.82759H1.81034V5.43103H1.2069ZM4.22414 9.05172H3.01724V1.2069H4.22414V9.05172ZM22.1727 25.9483H18.7511L18.084 23.3824C18.015 23.1166 17.7746 22.931 17.5 22.931C17.2254 22.931 16.985 23.1166 16.916 23.3824L16.2489 25.9483H12.8273L14.3592 19.3103H20.6405L22.1727 25.9483ZM20.6598 18.1034H14.3455L13.0125 13.2154L14.213 13.8156C14.2967 13.8574 14.3892 13.8793 14.4829 13.8793H20.5174C20.6111 13.8793 20.7036 13.8574 20.7873 13.8156L21.9939 13.2124L20.6598 18.1034ZM27.758 10.8933C27.7527 10.9965 27.7203 11.0967 27.6661 11.1833L22.8951 11.4667C22.8138 11.4714 22.7343 11.4927 22.6611 11.5292L20.3747 12.6724H18.1034V11.4655C18.1034 11.132 17.8336 10.8621 17.5 10.8621C17.1664 10.8621 16.8966 11.132 16.8966 11.4655V12.6724H14.6253L12.3918 11.5557C12.3093 11.5044 12.2132 11.4726 12.1102 11.4667L7.33914 11.1833C7.28498 11.0967 7.25254 10.9965 7.24726 10.8933L7.7792 6.63793H8.45356V9.05172C8.45356 9.22914 8.5314 9.39765 8.66687 9.51201C8.8019 9.62696 8.98097 9.67463 9.15597 9.64703L12.7278 9.05172H22.2775L25.8493 9.64688C25.8822 9.65216 25.9152 9.65517 25.9483 9.65517C26.0902 9.65517 26.2287 9.60509 26.3384 9.51201C26.4739 9.39765 26.5517 9.22914 26.5517 9.05172V6.63793H27.2258L27.758 10.8933ZM31.9828 9.05172H30.7759V1.2069H31.9828V9.05172ZM33.7931 5.43103H33.1897V4.82759H33.7931V5.43103ZM27.5818 19.737L27.1033 20.2155L27.5818 20.6941C27.8175 20.9297 27.8175 21.3117 27.5818 21.5473C27.464 21.6652 27.3095 21.7241 27.1552 21.7241C27.0008 21.7241 26.8464 21.6652 26.7285 21.5473L26.25 21.0688L25.7715 21.5473C25.6536 21.6652 25.4992 21.7241 25.3448 21.7241C25.1905 21.7241 25.036 21.6652 24.9182 21.5473C24.6825 21.3117 24.6825 20.9297 24.9182 20.6941L25.3967 20.2155L24.9182 19.737C24.6825 19.5013 24.6825 19.1194 24.9182 18.8837C25.1538 18.6481 25.5358 18.6481 25.7715 18.8837L26.25 19.3622L26.7285 18.8837C26.9642 18.6481 27.3462 18.6481 27.5818 18.8837C27.8175 19.1194 27.8176 19.5013 27.5818 19.737ZM9.35345 16.8966C8.18894 16.8966 7.24138 17.8441 7.24138 19.0086C7.24138 20.1731 8.18894 21.1207 9.35345 21.1207C10.518 21.1207 11.4655 20.1731 11.4655 19.0086C11.4655 17.8441 10.518 16.8966 9.35345 16.8966ZM9.35345 19.9138C8.85425 19.9138 8.44828 19.5078 8.44828 19.0086C8.44828 18.5094 8.85425 18.1034 9.35345 18.1034C9.85265 18.1034 10.2586 18.5094 10.2586 19.0086C10.2586 19.5078 9.85265 19.9138 9.35345 19.9138ZM18.1034 15.0862V16.8966C18.1034 17.2301 17.8336 17.5 17.5 17.5C17.1664 17.5 16.8966 17.2301 16.8966 16.8966V15.0862C16.8966 14.7527 17.1664 14.4828 17.5 14.4828C17.8336 14.4828 18.1034 14.7527 18.1034 15.0862ZM30.1724 26.5517C30.1724 26.885 29.9022 27.1552 29.569 27.1552C29.2357 27.1552 28.9655 26.885 28.9655 26.5517C28.9655 26.2185 29.2357 25.9483 29.569 25.9483C29.9022 25.9483 30.1724 26.2185 30.1724 26.5517Z" fill="#f1e8e8"/>
</svg>

<svg width="35" height="34" fill="none" xmlns="http://www.w3.org/2000/svg"><path d="M34.397 3.62H33.19V.604A.603.603 0 0 0 32.586 0h-2.414a.603.603 0 0 0-.603.603v3.018h-.604v-.604a.603.603 0 0 0-.603-.603h-3.017a.603.603 0 0 0-.604.603v.604h-4.224V2.005C20.517.9 19.617 0 18.512 0h-4.633a.603.603 0 0 0-.603.603c0 .983.48 1.85 1.21 2.401 0 .005-.003.009-.003.013v.604h-4.224v-.604a.603.603 0 0 0-.604-.603H6.638a.603.603 0 0 0-.604.603v.604h-.603V.603A.603.603 0 0 0 4.828 0H2.414a.603.603 0 0 0-.604.603v3.018H.603A.603.603 0 0 0 0 4.224v1.81c0 .334.27.604.603.604H1.81v3.017c0 .334.27.604.604.604h2.414c.333 0 .603-.27.603-.604V6.638h1.132l-.519 4.15a.623.623 0 0 0-.004.074c0 .521.225 1.018.617 1.362a.6.6 0 0 0 .362.149l4.587.273 1.653 6.063-1.778 7.707a.602.602 0 0 0 .588.74v6.034a.603.603 0 1 0 1.207 0v-6.035h2.305l-.486 2.918a.617.617 0 0 0-.009.1v3.017a.603.603 0 1 0 1.207 0v-2.967l.514-3.083a.598.598 0 0 0 .493-.436l.2-.771.2.77c.061.236.259.4.493.437l.514 3.082v2.968a.603.603 0 1 0 1.207 0v-3.018a.617.617 0 0 0-.009-.099l-.486-2.918h2.305v6.035a.603.603 0 1 0 1.207 0v-6.035a.602.602 0 0 0 .588-.739l-1.776-7.697 1.657-6.073 4.586-.273a.6.6 0 0 0 .361-.149 1.81 1.81 0 0 0 .618-1.362.65.65 0 0 0-.004-.075l-.52-4.15h1.128v3.018c0 .334.27.604.603.604h2.414c.334 0 .604-.27.604-.604V6.638h1.207c.333 0 .603-.27.603-.604v-1.81a.603.603 0 0 0-.603-.603Zm-13.88 3.018h4.828v1.701l-2.918-.486a.64.64 0 0 0-.1-.008h-1.81V6.638Zm5.431-3.017h1.81v.603h-1.81v-.603Zm-7.436-2.414a.8.8 0 0 1 .798.798v.409h-3.017a1.814 1.814 0 0 1-1.707-1.207h3.926Zm.798 2.414v4.224h-1.696A1.927 1.927 0 0 1 15.69 5.92v-2.3h3.62ZM9.66 6.638h4.913c.107.449.313.855.59 1.207h-2.486a.62.62 0 0 0-.098.008L9.66 8.34V6.638ZM7.241 3.62h1.81v.603h-1.81v-.603ZM1.207 5.43v-.603h.603v.603h-.603Zm3.017 3.62H3.017V1.208h1.207v7.845Zm17.949 16.897H18.75l-.667-2.566a.603.603 0 0 0-1.168 0l-.667 2.566h-3.422l1.532-6.638h6.281l1.533 6.638Zm-1.513-7.845h-6.315l-1.333-4.888 1.201.6a.604.604 0 0 0 .27.064h6.034a.604.604 0 0 0 .27-.063l1.207-.604-1.334 4.892Zm7.098-7.21a.607.607 0 0 1-.092.29l-4.77.284a.602.602 0 0 0-.235.062l-2.286 1.143h-2.272v-1.207a.603.603 0 1 0-1.206 0v1.207h-2.272l-2.233-1.116a.597.597 0 0 0-.282-.09l-4.77-.283a.607.607 0 0 1-.093-.29l.532-4.255h.675v2.414a.602.602 0 0 0 .702.595l3.572-.595h9.55l3.571.595a.603.603 0 0 0 .702-.595V6.638h.675l.532 4.255Zm4.225-1.841h-1.207V1.207h1.207v7.845Zm1.81-3.621h-.603v-.603h.603v.603Zm-6.211 14.306-.479.479.479.478a.603.603 0 1 1-.854.853l-.478-.478-.479.478a.601.601 0 0 1-.853 0 .603.603 0 0 1 0-.853l.479-.479-.479-.478a.603.603 0 1 1 .854-.853l.478.478.479-.478a.603.603 0 0 1 .853.853Zm-18.229-2.84a2.115 2.115 0 0 0-2.112 2.112c0 1.164.948 2.112 2.112 2.112a2.115 2.115 0 0 0 2.113-2.112 2.114 2.114 0 0 0-2.113-2.112Zm0 3.017a.906.906 0 0 1 0-1.81.906.906 0 0 1 0 1.81Zm8.75-4.828v1.81a.603.603 0 1 1-1.206 0v-1.81a.603.603 0 1 1 1.206 0Zm12.07 11.466a.603.603 0 1 1-1.208 0 .603.603 0 0 1 1.207 0Z" fill="#946E86"/></svg>
